public/img/union-jack.svg

<svg viewBox="0 0 198.67 198.67" xmlns="http://www.w3.org/2000/svg"><path d="m99.33 1a98.33 98.33 0 1 0 98.33 98.33 98.33 98.33 0 0 0 -98.33-98.33zm0 191.15a92.82 92.82 0 1 1 92.82-92.82 92.82 92.82 0 0 1 -92.82 92.82z" fill="#fff" stroke="#ed1c24" stroke-miterlimit="10" stroke-width="2"/><path d="m193.44 99.33a94.52 94.52 0 0 1 -2.44 21.29 94 94 0 0 1 -91.68 72.82 94 94 0 0 1 -75.08-37.44 93.65 93.65 0 0 1 -16.59-35.38 94.88 94.88 0 0 1 -.83-38.62 93.85 93.85 0 0 1 15.18-36.32 94.08 94.08 0 0 1 171.44 53.65z" fill="#0a118a"/><g fill="#ed1c24" stroke="#fff" stroke-miterlimit="10" stroke-width="6"><path d="m183.17 142.14a93.57 93.57 0 0 1 -7.5 12.23l-56.4-33.75-21.64-13-19.63 13-53.76 35.38a92.36 92.36 0 0 1 -7.77-12l35.42-23.35 32.11-21.17-29.19-17.48-40.06-24a92.27 92.27 0 0 1 7.25-12.32l58.49 35 16.75 10 21.53-14.19 54.23-35.71a93.34 93.34 0 0 1 8.06 11.89l-44.54 29.33-25.59 16.9 36.29 21.72z"/><path d="m193.44 99.33a94.52 94.52 0 0 1 -2.44 21.29h-72.21v70.8a94.7 94.7 0 0 1 -38.28.13v-70.93h-72.86a94.88 94.88 0 0 1 -.83-38.62h73.69v-74.88a94.7 94.7 0 0 1 38.28.13v74.75h73.06a94 94 0 0 1 1.59 17.33z"/></g></svg>

<svg xmlns="http://www.w3.org/2000/svg" viewBox="0 0 198.67 198.67"><defs><style>.cls-1{fill:#fff;stroke:#ed1c24;stroke-width:2px;}.cls-1,.cls-3{stroke-miterlimit:10;}.cls-2{fill:#0a118a;}.cls-3{fill:#ed1c24;stroke:#fff;stroke-width:6px;}</style></defs><title>union-jack</title><g id="Layer_2" data-name="Layer 2"><g id="Layer_1-2" data-name="Layer 1"><path class="cls-1" d="M99.33,1a98.33,98.33,0,1,0,98.33,98.33A98.33,98.33,0,0,0,99.33,1Zm0,191.15a92.82,92.82,0,1,1,92.82-92.82A92.82,92.82,0,0,1,99.33,192.15Z"/><path class="cls-2" d="M193.44,99.33A94.52,94.52,0,0,1,191,120.62a94,94,0,0,1-91.68,72.82A94,94,0,0,1,24.24,156,93.65,93.65,0,0,1,7.65,120.62,94.88,94.88,0,0,1,6.82,82,93.85,93.85,0,0,1,22,45.68,94.08,94.08,0,0,1,193.44,99.33Z"/><path class="cls-3" d="M183.17,142.14a93.57,93.57,0,0,1-7.5,12.23l-56.4-33.75-21.64-13L78,120.62,24.24,156A92.36,92.36,0,0,1,16.47,144l35.42-23.35L84,99.48,54.81,82l-40.06-24A92.27,92.27,0,0,1,22,45.68l58.49,35,16.75,10,21.53-14.19L173,40.78a93.34,93.34,0,0,1,8.06,11.89L136.52,82,110.93,98.9l36.29,21.72Z"/><path class="cls-3" d="M193.44,99.33A94.52,94.52,0,0,1,191,120.62H118.79v70.8a94.7,94.7,0,0,1-38.28.13V120.62H7.65A94.88,94.88,0,0,1,6.82,82H80.51V7.12a94.7,94.7,0,0,1,38.28.13V82h73.06A94,94,0,0,1,193.44,99.33Z"/></g></g></svg>
